X:1
T:"The Embroidery"
C:Reel composed by Davy Rogers
L:1/8
Q:180
K:G
M:4/4
A |: B2 dc BG GB | cd ed cA AB | cA eA gA ec | dG FA BG Gc | DG dc BG cB | cd Bc AB cd | \
eA gA fA eA |1 dB cA BG GA :|2 dB cA BG Gc |: d2 gc Bd AG | cd ec da fd | dB gc Bd AG | \
cA eA BG GB | dB gc Bd AG | cd ec da fd | bd ad gd eB |1 cA eA BG Gc :|2 cA eA BG G | \



